packages/ui-solid/icons/heart_24.svg

<svg width="24" height="24" viewBox="0 0 24 24" fill="none" xmlns="http://www.w3.org/2000/svg">
<path fill-rule="evenodd" clip-rule="evenodd" d="M12.004 4.2059C11.1424 3.42775 9.99779 2.80956 8.74364 2.5792C7.19622 2.29498 5.48264 2.60553 3.99694 3.91757C2.99944 4.79848 2.38344 6.17569 2.17974 7.65106C1.97406 9.1407 2.17429 10.8157 2.90682 12.3682C3.43956 13.4973 4.698 14.9032 5.9879 16.1829C7.31082 17.4954 8.78286 18.7856 9.85918 19.6967C11.1019 20.7487 12.9061 20.7487 14.1488 19.6967C15.2251 18.7856 16.6972 17.4954 18.0201 16.183C19.31 14.9033 20.5684 13.4973 21.1012 12.3683C21.8337 10.8157 22.0339 9.14071 21.8282 7.65107C21.6245 6.1757 21.0085 4.79849 20.011 3.91759C18.5253 2.60555 16.8118 2.29499 15.2643 2.57921C14.0102 2.80956 12.8656 3.42776 12.004 4.2059ZM8.41847 4.34959C7.35896 4.15498 6.21949 4.35624 5.18844 5.26677C4.59927 5.78707 4.12538 6.7199 3.96282 7.89725C3.80223 9.06033 3.95938 10.3808 4.53472 11.6002C4.91445 12.405 5.94779 13.6076 7.25563 14.9051C8.53046 16.1699 9.96213 17.4255 11.0222 18.3228C11.5937 18.8066 12.4143 18.8066 12.9858 18.3228C14.0459 17.4255 15.4775 16.1699 16.7524 14.9051C18.0602 13.6076 19.0935 12.405 19.4733 11.6002C20.0486 10.3808 20.2057 9.06035 20.0452 7.89726C19.8826 6.71991 19.4087 5.78709 18.8195 5.26678C17.7885 4.35625 16.649 4.15499 15.5895 4.3496C14.4994 4.54982 13.4952 5.17339 12.8524 5.9033C12.403 6.4137 11.605 6.4137 11.1556 5.9033C10.5128 5.17339 9.5086 4.54982 8.41847 4.34959Z" fill="#007AFF"/>
</svg>

<svg xmlns="http://www.w3.org/2000/svg" width="24" height="24" fill="none"><path fill="currentColor" fill-rule="evenodd" d="M12.004 4.206c-.862-.778-2.006-1.396-3.26-1.627-1.548-.284-3.261.027-4.747 1.339-.998.88-1.614 2.258-1.817 3.733a8.44 8.44 0 0 0 .727 4.717c.533 1.13 1.791 2.535 3.08 3.815 1.324 1.312 2.796 2.603 3.872 3.514a3.31 3.31 0 0 0 4.29 0c1.076-.911 2.548-2.202 3.871-3.514 1.29-1.28 2.548-2.686 3.081-3.815a8.44 8.44 0 0 0 .727-4.717c-.203-1.475-.82-2.853-1.817-3.733-1.486-1.312-3.2-1.623-4.747-1.339-1.254.23-2.398.849-3.26 1.627m-3.586.144c-1.059-.195-2.199.006-3.23.917-.589.52-1.063 1.453-1.225 2.63a6.64 6.64 0 0 0 .572 3.703c.38.805 1.413 2.008 2.72 3.305 1.275 1.265 2.707 2.52 3.767 3.418a1.51 1.51 0 0 0 1.964 0c1.06-.898 2.491-2.153 3.766-3.418 1.308-1.297 2.342-2.5 2.721-3.305a6.64 6.64 0 0 0 .572-3.703c-.162-1.177-.636-2.11-1.226-2.63-1.03-.91-2.17-1.112-3.23-.917-1.09.2-2.094.823-2.737 1.553-.449.51-1.247.51-1.696 0A4.97 4.97 0 0 0 8.418 4.35" clip-rule="evenodd"/></svg>
